X:1
T:Buxtehude - Wie schön leuchtet der Morgenstern. {Professional production score.}
T:10. Wie schön leuchtet der Morgenstern.
%%score { ( 1 3 6 ) | ( 2 4 5 ) }
L:1/8
M:6/4
K:G
V:1 treble nm="Man."
V:3 treble 
V:6 treble 
V:2 bass 
V:4 bass 
V:5 bass 
V:1
 z12 |[Q:1/4=220] z12 | z12 | z2 d2 c2 B2 d2 B2 | A2 B2 P^c2 d6 | z2 g2 f2 e2 g2 e2 | %6
 ^c2 e2 f2 g2 f2 e2 | f4 g2 f4 e2- | e2 PA2 d2- d2 Me2 c2- | c2 Md2 B2 A2 d4- | %10
 d2 e2 d2 ^c2 e2 c2 | z2 a2 g2 f2 a2 f2 | d2 e2 d2 e6- | e2 d2 ^c2 d6 | z2 e2 f2 g2 ^c2 d2 | %15
 e2 d2 =c2 B2 d2 ^c2 | d2 A2 B2 A4 PG2 | A4 d2 e2 f2 Mg2 | f12 | z2 g2 =f2 e2 g2 Pe2 | %20
 =f6- f2 e2 d2 | e6- e2 d2 c2 | d6- d2 c2 B2 | c12- | c2 B2 c2 d2 A2 c2 | B2 c2 d2- d2 PG2 c2- | %26
 c2 PA2 B2- B2 PE2 A2- | A2 PE2 MG2- G4 PF2 | !breath![DG]12 |[Q:1/4=120] G12 |[Q:1/4=220] d12 | %31
 B12 | G12 | d12 | e12 | e12 | d12 | z12 | d12 | e12 | f12 | g12 | f12 | e12 | e12 | d12 | z12 | %47
 d12 | e12 | d12 | c12 | B12 | A12- | A12 | G12- |[Q:1/4=180] G12-[Q:1/4=140] | %56
[Q:1/4=100] !breath!G12[Q:1/4=50] | %57
[M:4/4][Q:1/4=80] z z/4!f! ^C/4D/4E/4 D-D/4F/4G/4A/4 G-G/4A/4B/4c/4 B-B/4^c/4d/4e/4 | d8 | B8 | %60
 d8 | B8 |[Q:1/4=100] B4 B4 | A4 A4 | (3BAB (3cBc (3d^cd (3ede | (3fef (3gfg a2 z2 | B4 B4 | %67
 A4 A4 | (3BAB (3cBc (3d^cd (3ede | (3fef (3gfg a2 b2 | c'4 b4 | a2 a2 a4 | g2 z2 A2 A2 | %73
 G2[Q:1/4=40] z2"_largo" z2 Be/4g/4f/4g/4 | z2 z a Pg(a/f/) Mg/a/4b/4a/4g/4f/4g/4 | %75
{g} !breath!Pf8 |[M:6/8][Q:1/4=120]!mf! z dc BeB | z ag fad | g6 | f3 z cd | e3 z Bc | d3 z AB | %82
 c3 z GA | B6 | z G=F EFG | A6 | z AG FGA | B2 A G3 | z AG FAD | G6 | F3 z CD | E3 z B,C | %92
 D3 z A,B, | C3 z G,A, | B,DC B,CD | E6 | z ED ^CDE |[I:staff +1] A,[I:staff -1]AG FGA | Bdc Bcd | %99
 ecB ABc | dBA GAB | cAG FGA | B3 b3- | b3 a3- | a3 g3- | g3 f3- | f3 e3- | e3 d3- | d3 ^c3 | %109
 d3 z2 z | ^cAc dDd | BGB cCc | AFA BB,B | ^GEG AEA | FDF GAB | cde cAc | Bcd e3- | e3 d3- | %118
 d3 ^c3- | c3 B3- | B3 A3- | A3 G3- | G3 F3 | G3 g3 | f6 | e6 | d6 | c6 | B6 | A6 | %130
 !breath!G3!p!"_piano" d3 | c6 | B6 | A6[Q:1/4=80] |[Q:1/4=40] G3 z4 || %135
[M:12/8] z z!f![Q:1/4=150] G | dDd B2 A GAB ABc | B2 B ABG FGA GAB | A3 d2 c B3 z2 z | z12 | %140
 z6 z2 z z z d | gGg f2 e def efg | f3 z ga bag f3- | f2 e d3- d3 d3 | d3 d3 d3 d3- | %145
 d3- dB^c d3- dcd | e3 Me3 d6 | z12 | z12 | z6 z2 z z z G | ABc Bcd cdc B3 | z6 z2 z z z G | %152
 ABc Bcd cdc B3 | c3 d3 e3 z z d | efg fga gag f3 | e3 Me3 d6 | d6 z2 z z z A | BcB ABA GAG F3 | %158
 z6 z2 z z z d | e=fe ded =cdc B2 B | ded cdc BcB A2 a | bc'b aba gag ffg | aba gaf efg f3 | %163
 e=fe ded cdc B3 | c3 B3- B3 A2 B | z6 z2 z z z d | e=fe ded cdc BBc | ded cdB ABc BBc | %168
 ded cdB A3[Q:1/4=40] !breath!G3 :|[Q:1/4=160]!f! d3 B3 z6 |!f! z d z z d z z d z z d z | %171
!p! z d z z d z z d z z d z |!f! !>![DAd]3 !>![DGB]3 !>![DFd]3 !>![DGB]3 | BdD GBD FAD FAD | %174
 d3 d3 A3 A3 |!p! BdD GBD FAD FAD | d3 d3 A3 A3 |!f! x12 | z12 | E2 E FGA G3 EFG | %180
 A2 A Bcd c3 z AB | A3 A3 G3 z2 z | z2 z z z g fgf efe | dfe def g3 f3 | g3 e3 d3 ^c3 | %185
 d3 z2 z z6 | z2 z z z d BcB ABA | G3- GAB- B2 A G3 | F3 FGA B3 c3 | Bdc ded- d3 e3 | %190
 f3 z z f g3 a3 | b3 z bc' z ab z ga | z fg z ef z de z cd | B3 g3 f3 e3 | d3 c3 B3 A3 | %195
[M:4/4][Q:1/4=50] (G8[Q:1/4=20][Q:1/4=50][Q:1/4=20][Q:1/4=70] |!fff! !fermata![B,G]8) |] %197
V:2
!mf! G,,12 | D,12 | B,,12 | G,,12 | D,12 | E,12 | E,12 | D,12 | z12 | D,12 | E,12 | F,12 | G,12 | %13
 F,12 | E,12 | E,12 | D,12 | z12 | D,12 | E,12 | D,12 | C,12 | B,,12 | A,,12- | A,,12 | G,,12- | %26
 G,,12- | B,6 A,6 | B,12 | z12 | z12 | z4 x2 z2 G,2 A,2 | B,2 G,2 B,2 C2 G,2 C2- | %33
 C2 B,2 A,2 B,6- | B,2 A,2 G,2 A,4 B,2 | C2 C,2 D,2 E,2 C,2 E,2 | G,6- G,2 F,2 E,2 | %37
 F,2 E,2 F,2 G,2 F,2 E,2 | F,2 E,2 F,2 G,4 G,,2 | C,2 E2 D2 C2 E2 C2 | A,2 B,2 C2 D4 C2 | %41
 B,2 G,2 A,2 B,2 A,2 G,2 | D2 D,2 E,2 F,2 D,2 F,2 | G,2 E,2 F,2 G,2 E,2 G,2 | %44
 A,2 C2 B,2 A,2 C2 A,2 | F,6 G,2 F,2 E,2 | D,2 C,2 B,,2 C,2 B,,2 A,,2 | G,,2 G,2 A,2 B,2 G,2 B,2 | %48
 C12- | C6 B,2 C2 B,2- | B,6 A,2 B,2 A,2- | A,6 G,2 A,2 G,2- | G,6 F,2 E,2 D,2 | %53
 ^C,4 A,,2 D,2 D2 C2 | B,4 G,2 z2 C4 | z2 D2 C2 z2 C2 B,2 | z2 B,2 A,2 B,6 |[M:4/4] x8 | %58
 x6 D-D/4F,/4G,/4A,/4 | %59
 G,-G,/4D,/4E,/4F,/4 G,-G,/4G,/4F,/4E,/4 D,-D,/4E,/4D,/4C,/4 B,,-B,,/4C,/4B,,/4A,,/4 | G,, x x6 | %61
 x8 | (3G,F,G, (3A,G,A, (3B,A,B, (3CB,C | x8 | x8 | x6 D,2 | (3G,F,G, (3A,G,A, (3B,A,B, (3CB,C | %67
 x8 | x8 | x4 (3z DC (3B,EE, | (3z A,G, (3F,A,D, (3z G,F, (3E,G,B,, | %71
 (3C,ED (3CEA, (3z E^C (3z DD, | (3z EE, (3z B,B,, (3z C,A,, (3z D,D,, | %73
 (3G,,B,,D, !breath!G,2 x4 | x8 | x8 |[M:6/8] x6 | x6 | x6 | x6 | C6 | B,6 | A,6 | G,B,A, G,A,B, | %84
 x6 | x6 | z6 | G,6 | A,6 | E,6 | D,6 | C,6 | A,B,A, G,3- | G,A,G, F,3 | G,6 | z G,=F, E,F,G, | %96
 A,6 | F,F,E, D,E,F, | G,B,A, G,A,B, | CA,G, F,G,A, | B,G,F, E,F,G, | A,F,E, D,E,F, | G,3 x3 | %103
 E^CE FF,F | ^DB,D EE,E | ^CA,C DD,D | B,G,B, CC,C | A,F,A, B,B,,B, | ^G,E,G, A,A,,A, | %109
 D,E,F, G,3- | A,6 | G,6 | F,6 | B,3 A,3- | A,3 G,3- | G,3 F,3 | G,3 z CB, | A,F,A, B,B,,B, | %118
 ^G,E,G, A,A,,A, | F,D,F, G,G,,G, | E,C,E, =F,E,F, | B,6 | A,6 | G,3 z B,E- | E3 D3- | D3 C3- | %126
 C3 B,3- | B,3 A,3 | B,2 ^C D3 | G,F,E, F,3 | G,3 B,3- | B,3 A,3 | B,2 ^C G,3- | G,F,E, F,3 | %134
 G,3 z4 ||[M:12/8] z2 z | z6 z2 z x x2 | z6 z2 z z z G, | DD,D B,2 A, G,A,B, A,B,C | %139
 B,3 A,B,^C D2 =C B,CD | C3- CDC B,2 C D3 | z12 | z6 z2 z z z D | z6 z2 z z z G, | %144
 DD,D B,2 A, G,B,G, DD,D | E3 E3 D3 D3- | D3 ^C3 DA,B, A,3 | z6 z2 z z z G, | A,B,C B,CD CDC B,3 | %149
 ^C3 D3 E3 D2 B, | C3 G,3 A,3 G,3 | z12 | z6 z2 z z z G, | A,B,C B,CD CDC B,3 | %154
 C3 A,3 B,2 ^C[I:staff -1] D[I:staff +1]B,A, | x3 C3- CB,A, B,3- | B,A,PG, A,3 z6 | x12 | x12 | %159
 x12 | B,3 C3- C2 ^C D2 D | G,3 A,3- A,2 ^A, B,3 | F,3 G,2 ^G, A,3 D,3 | z6 z2 z x3 | %164
 z6 z2 z z z D | E=FE DED CDC B,3 | C3 B,3 A,3 G,3 | z z B,, C,2 ^C, z2 z z G,A, | %168
 B,3 A,2 G,- G,2 PF, G,3 :| z6!p! D3 B,3 | G,3 F,3 G,3 D,3 | G,3 F,3 G,3 D,3 | A,3 G,3 A,3 G,3 | %173
 G,3 G,3 D,3 D,3 | B,DD, G,B,D, F,A,D, F,A,D, | G,3 G,3 D,3 D,3 | B,DD, G,B,D, F,A,D, F,A,D, | %177
 A,2 A, B,CD C3 A,B,C | B,2 B, x x8 | A,3 F,3 E,3 A,3 | D,3 B,,3 A,,2 A, B,3 | C3 A,B,C B,3 x3 | %182
 F,G,F, E,F,E, D,3 z2 z | z12 | x12 | z2 z z z D B,CB, A,B,A, | z12 | z2 z D,6- D,2 ^C, | %188
 D,3 z z D B,CB, A,B,A, | G,B,A, G,3 F,G,F, E,F,E, | D,2 D, C,D,C, B,,C,B,, A,,B,,A,, | %191
 G,,G,F, E,3 F,2 G, A,3 | B,3 C3 D3 D,3 | G,3"_Ped." E3- E2 D- D2 C- | %194
 C2 B,- B,2 A,- A,2 G,- G,2 F, | %195
[M:4/4] G,-G,/4D,/4E,/4=F,/4 E,/4F,/4E,/4F,/4PD, E,-E,/4C,/4D,/4E,/4 D,/4E,/4D,/4E,/4PC, | D,8 |] %197
V:3
 x12 | z2 A2 G2 F2 A2 F2 | D2 F2 E2 D2 F2 D2 | B,2 B2 A2 G2 B2 G2 | F6- F2 B2 A2 | G12- | %6
 G4 A2 B2 A2 G2 | d2 A2 B2 z2 A2 G2 | F6 E6 | F4 G2- G4 F2 | G12 | A12 | B6- B2 c2 B2 | %13
 A6- A2 B2 A2 | G12 | G12 | F4 G2- G2 F2 PE2 | F6 G6 | A2 d2 c2 B2 d2 B2 | G6 c6- | c2 B2 A2 B6- | %21
 B2 A2 G2 A6- | A2 G2 F2 G6- | G2 F2 G2 A2 E2 G2 | F12 | G4 =F2 E6 | D6 C6 | x6 D2 E2 C2 | x12 | %29
 x12 | z2 D2 E2 F2 D2 F2 | G2 D2 E2 B,4 C2 | D2 B,2 D2 E6 | F6 G2 A2 B2 | c4 B2 c2 A4 | %35
 G2 A2 B2 c6- | c2 B2 A2 B2 A2 G2 | A2 G2 A2 B2 A2 G2 | A2 G2 A2 B2 G2 B2 | c12- | c4 B2 A2 B2 c2 | %41
 d2 B2 c2 d2 c2 B2 | A6- A2 d2 c2 | B2 G2 A2 B2 G2 B2 | c12- | c2 B2 A2 B2 A2 G2 | F4 G2 A2 B2 c2 | %47
 B4 A2 G2 B2 G2 | E2 c2 B2 A2 c2 A2 | F2 D2 F2 G6 | E2 C2 E2 =F6 | D2 B,2 D2 E6 | ^C2 A,2 C2 D6 | %53
 E2 F2 G2 F6 | z2 D2 =F2 E6- | E6 D6 | C6 D6 |[M:4/4] x8 | %58
 z z/4 F/4G/4A/4 B-B/4D/4E/4F/4 G-G/4[I:staff +1]A,/4B,/4C/4 x2 | x8 | %60
[I:staff -1] z z/4 B/4A/4G/4 F-F/4G/4F/4E/4 D-D/4E/4D/4C/4 B,-B,/4D/4E/4F/4 | %61
 G-G/4G/4F/4E/4 D-D/4E/4D/4C/4 B,-B,/4G/4F/4E/4 D-D/4[I:staff +1]C/4B,/4A,/4 |[I:staff -1] G4 G4 | %63
 (3D^CD (3EDE (3FEF (3DEF | G2 A2 B2 G2 | d2 e2 d2 z2 | G4 G4 | (3D^CD (3EDE (3FEF (3DEF | %68
 G2 A2 B2 G2 | d2 e2 d2 ^g2 | a6 g2- | [eg]2 [eg]4 [df]2 | B2 G2- [EG]2 [DF]2 | [B,D]2 z2 G4- | %74
 G2 F2 E4 | [Dd]8 |[M:6/8] G6 | F6 | E6 | D6 | BcB A3- | ABA G3- | GAG F3 | G6 | C6 | z CB, A,B,C | %86
 D6 | z DC B,EB, | x6 | z ED ^CE[I:staff +1]G, | x6 | x6 | x6 | x6 | x6 | x6 | x6 | x6 | x6 | x6 | %100
 x6 | x6 | x3[I:staff -1] d3 | ^c6 | B6 | A6 | G6 | F6 | E6 | D3 z2 z | E3 z2 z | D3 z2 z | %112
 C3 z2 z | x6 | x6 | x6 | x3 G3 | F6 | E6 | D6 | C6 | x6 | x6 | B,3 z ed | ^cAc dBd | BEB cAc | %126
 ADA BGB | GEG ADA- | AGF G3 | E3 DEC | B,3 BGB | GEG ADA- | AGF D3 | E3 DEC | B,3 z4 || %135
[M:12/8] x3 | x9 z z D | G[I:staff +1]G,[I:staff -1]G F2 E DEF EFG | F3- F3 G3- G2 F- | %139
 F2 E A2 G FGA- A2 G- | GFE F3 z GA B3 | z6 z2 z z z G | dDd B2 A GAB ABc | %143
 G[I:staff +1]G,[I:staff -1]G F2 E DEF G3 | F3 F3 G3 F3 | GFG G3 FFG A3 | B^cB ABG F2 G F3 | z12 | %148
 z6 z2 z z z D | EFG FGA GAG F2 D | E6- E2 F z z D | EFG FGA GAG F2 E | F3 G3 A3 G3- | %153
 G3- G2 =F E3 G3 | E3 C3 D3 D3- | D[I:staff +1]CB,[I:staff -1] A3- A3- ADG- | GFPE F3 x6 | %157
 z6 z2 z z z D | E=FE DED CDC B,3 | ^C3 D3- D2 ^D E2 E | BcB ABA GAG F2 f | gag fgf efe dde | %162
 fgf efd- d2 ^c d2 d | x9 z z G | ABA GAG GAG F3 | G3 F3 E3 D3 | z6 z2 z z GA | BcB ABG- G2 F G3 | %168
 z2 z z z E A,B,MC B,3 :| B3 G3 z6 | B2 G A2 D B2 G A2 F | B2 G A2 D B2 G A2 F | x12 | x12 | x12 | %175
 x12 | x12 | x12 | x3 ^CDE D3 B,CD | ^C3 D3- DCB, C3 | D3 D3 z EF =G2 D | E3 D3- D3 z2 z | x12 | %183
 z2 z z z d BcB ABA | z2 z z z G FGF EFE | DFE DEF G3- G2 F | G3 z2 z G3 F3 | z B,^C D2 G FGF EFE | %188
 D3 DEF G3 F3 | G3 B3 A3 G3 | A3 z z A B3 c3 | d3 z2 z z6 | d3 c3 B3 A3 | G3 z Bc z AB z GA | %194
 z FG z EF z DE z CD |[M:4/4] B,4 C-C/4A,/4B,/4C/4 B,/4C/4B,/4C/4PA, | x8 |] %197
V:4
 x12 | x12 | x12 | x12 | x12 | x12 | x12 | x12 | x12 | x12 | x12 | x12 | x12 | x12 | x12 | x12 | %16
 x12 | x12 | x12 | x12 | x12 | x12 | x12 | x12 | x12 | x12 | x12 | G,,12- | G,,12 | x12 | x12 | %31
 x12 | x12 | x12 | x12 | x12 | x12 | x12 | x12 | x12 | x12 | x12 | x12 | x12 | x12 | x12 | x12 | %47
 x12 | x12 | x12 | x12 | x12 | x12 | x12 | x6 z2 z2 F,2 | G,12- | G,6 G,,6 |[M:4/4] x8 | x8 | x8 | %60
 x8 | x8 | x8 | x8 | x8 | x8 | x8 | x8 | x8 | x8 | x8 | x8 | x8 | x8 | x8 | x8 |[M:6/8] x6 | x6 | %78
 x6 | x6 | x6 | x6 | x6 | x6 | x6 | x6 | x6 | x6 | F,6 | x6 | A,[I:staff -1]DC[I:staff +1] B,3- | %91
 B,CB, A,3- | B,,6 | A,,6 | G,,6 | x6 | x6 | x6 | x6 | x6 | x6 | x6 | z B,,A,, G,,GF | x6 | x6 | %105
 x6 | x6 | x6 | x6 | x6 | G,3 F,3- | F,3 E,3- | E,3 D,3- | D,3 C,3- | C,3 B,,3 | A,,6 | G,,3 x3 | %117
 x6 | x6 | x6 | x6 | D,B,,D, E,E,,E, | ^C,A,,C, D,D,,D, | G,,G,F, E,3 | A,3 B,3 | ^G,3 A,3 | %126
 F,3 G,3 | E,3 F,3 | G,3 z z B,, | C,3 D,3 | G,,3 G,3 | E,3 F,3 | G,3 z z B,, | C,3 D,3 | %134
 G,,3 z4 ||[M:12/8] x3 | x12 | x12 | z6 z2 z z z D, | G,G,,G, F,2 E, D,E,F, G,A,B, | A,3- A,3 G,6 | %141
 x12 | x12 | x12 | x12 | x9 F,3 | G,3 A,3 D,3- D,2 D, | E,F,G, F,G,A, G,A,G, F,2 E, | %148
 F,3 G,3 A,3 G,3 | E,3 D,3 z6 | x12 | x12 | x12 | x12 | x12 | ^G,3 z A,=G, F,3 G,3 | D,6 z6 | x12 | %158
 x12 | x12 | x12 | x12 | x12 | x12 | x12 | x12 | x12 | x6 D,3 G,,3 | z2 z z z ^C, D,3 G,,3 :| %169
 z6 B,3 G,3 | x12 | x12 | F,3 G,3 D,3 G,,3 | x12 | x12 | x12 | x12 | z6 E,2 E, F,G,A, | %178
 G,3 E,F,G, F,2 F, ^G,A,B, | x12 | x12 | z z C, D,3 G,,3 z z G, | x12 | x12 | x12 | x12 | %186
 G,A,G, F,3 G,2 G,, D,3 | E,3 B,,3 G,,3 A,,3 | D,,3 z2 z z6 | z2 z z z G, x6 | x12 | x12 | x12 | %193
 z2 z E,3 B,,3 C,3 | G,,3 A,,3 B,,2 C, D,3 |[M:4/4] (G,,8 | !fermata!G,,8) |] %197
V:5
 x12 | x12 | x12 | x12 | x12 | x12 | x12 | x12 | x12 | x12 | x12 | x12 | x12 | x12 | x12 | x12 | %16
 x12 | x12 | x12 | x12 | x12 | x12 | x12 | x12 | x12 | x12 | x12 | x12 | x12 | x12 | x12 | x12 | %32
 x12 | x12 | x12 | x12 | x12 | x12 | x12 | x12 | x12 | x12 | x12 | x12 | x12 | x12 | x12 | x12 | %48
 x12 | x12 | x12 | x12 | x12 | x12 | x12 | x12 | x6 G,6 |[M:4/4] x8 | x8 | x8 | x8 | x8 | x8 | x8 | %64
 x8 | x8 | x8 | x8 | x8 | x8 | x8 | x8 | x8 | x8 | x8 | x8 |[M:6/8] x6 | x6 | x6 | x6 | x6 | x6 | %82
 x6 | x6 | x6 | x6 | x6 | x6 | x6 | x6 | x6 | x6 | x6 | x6 | x6 | x6 | x6 | x6 | x6 | x6 | x6 | %101
 x6 | x6 | x6 | x6 | x6 | x6 | x6 | x6 | x6 | x6 | x6 | x6 | E,6 | D,6 | C,6 | D,3 x3 | x6 | x6 | %119
 x6 | x6 | x6 | x6 | x6 | x6 | x6 | x6 | x6 | x3 G,3- | x6 | x6 | x6 | x6 | x6 | x7 ||[M:12/8] x3 | %136
 x12 | x12 | x12 | x12 | x12 | x12 | x12 | x12 | x12 | x12 | x12 | x12 | x12 | x12 | x12 | x12 | %152
 x12 | x12 | x12 | x12 | x12 | x12 | x12 | x12 | x12 | x12 | x12 | x12 | x12 | x12 | x12 | x12 | %168
 x12 :| x12 | x12 | x12 | x12 | x12 | x12 | x12 | x12 | x12 | x12 | x12 | x12 | x12 | x12 | x12 | %184
 x12 | x12 | x12 | x12 | x12 | x12 | x12 | x12 | x12 | x12 | x12 |[M:4/4] x8 | x8 |] %197
V:6
 x12 | x12 | x12 | x12 | x12 | x12 | x12 | x12 | x12 | x12 | x12 | x12 | x12 | x12 | x12 | x12 | %16
 x12 | x12 | x12 | x12 | x12 | x12 | x12 | x12 | x12 | x12 | x12 | x12 | x12 | x12 | x12 | x12 | %32
 x12 | x12 | x12 | x12 | x12 | x12 | x12 | x12 | x12 | x12 | x12 | x12 | x12 | x12 | x12 | x12 | %48
 x12 | x12 | x12 | x12 | x12 | x12 | x12 | x12 | x12 |[M:4/4] x8 | x8 | x8 | x8 | x8 | x8 | %63
 F2 z2 x4 | x8 | x4 f2 x2 | x8 | F2 z2 x4 | x8 | x4 f2 x2 | x8 | x8 | g2 x6 | x2 z2 x4 | %74
 P^c/B/4c/4A d2- d2 P^c2 | x8 |[M:6/8] x6 | A6 | z ed ^ceG | Adc B3 | x6 | x6 | x6 | x6 | x6 | x6 | %86
 x6 | x6 | x6 | x6 | x6 | x6 | x6 | x6 | x6 | x6 | x6 | x6 | x6 | x6 | x6 | x6 | x3 g3- | g3 f3- | %104
 f3 e3- | e3 d3- | d3 c3- | c3 B3- | B3 A3 | FGA BeB | x6 | x6 | x6 | x6 | x6 | x6 | x6 | c3 B3- | %118
 B3 A3- | A3 G3- | G3 =F3- | F3 E3- | E3 D3 | D3 x3 | x6 | x6 | x6 | x6 | x6 | x6 | D3 x3 | x6 | %132
 x3 PG3 | x6 | MD3 z4 ||[M:12/8] x3 | x12 | x12 | x12 | x12 | x12 | x12 | x12 | B3 z AG FGA B3 | %144
 A3 B3 B3 A2 B | x12 | x12 | x12 | x12 | x12 | x9 G3 | x12 | x12 | x6 z2 z d>c B/A/ | %154
 G3 c3 B3 Adc | B3 x9 | x12 | x12 | G3 B3 E2 ^F G3- | G3 ^F3 A3 G2 G | x12 | x12 | x12 | x12 | %164
 x12 | c3 B3 A3 G3 | x12 | x12 | x12 :| x12 | x12 | x12 | x12 | x12 | x12 | x12 | x12 | x12 | x12 | %179
 x12 | F3 ^G3 A3 x3 | z FG F3 x6 | x12 | x12 | GBA GAB A3 G3 | FAG FGA B3 c3 | B3 A3 x6 | x12 | %188
 x12 | x9 ^c3 | d3 x2 d e3 f3 | g3 g3 f3 e3 | x12 | x12 | x12 |[M:4/4] x8 | x8 |] %197

